icons/lines/repeat-circle.svg

<svg xmlns="http://www.w3.org/2000/svg" width="24" height="24" viewBox="0 0 24 24" fill="none" stroke="currentColor" stroke-width="2" stroke-linecap="round" stroke-linejoin="round" >
  <path d="M7.5 8.34003H14.9C15.79 8.34003 16.5 9.06 16.5 9.94V11.71" stroke-miterlimit="10"/>
  <path d="M9.19 6.65997L7.5 8.34003L9.19 10.03" stroke-miterlimit="10"/>
  <path d="M16.5 15.66H9.10001C8.21001 15.66 7.5 14.94 7.5 14.06V12.29" stroke-miterlimit="10"/>
  <path d="M14.8101 17.34L16.5001 15.66L14.8101 13.97" stroke-miterlimit="10"/>
  <path d="M12 22C17.5228 22 22 17.5228 22 12C22 6.47715 17.5228 2 12 2C6.47715 2 2 6.47715 2 12C2 17.5228 6.47715 22 12 22Z" stroke-miterlimit="10"/>
  </svg>

<svg xmlns="http://www.w3.org/2000/svg" width="24" height="24" viewBox="0 0 24 24" fill="none" stroke="currentColor" stroke-width="2" stroke-linecap="round" stroke-linejoin="round">
  <path d="m14.81 17.34 1.69-1.68-1.69-1.69" />
  <path d="M16.5 15.66H9.1a1.6 1.6 0 0 1-1.6-1.6v-1.77" />
  <path d="M7.5 8.34h7.4a1.6 1.6 0 0 1 1.6 1.6v1.77" />
  <path d="M9.19 6.66 7.5 8.34l1.69 1.69" />
  <circle cx="12" cy="12" r="10" />
</svg>
